!!!SOCIAL_FUNCTION:	potlatch songs
!!!PDT:	1939
!!!OTL: No_22_Potlatch_Song.krn
!!!LANG: Non-Tone
!!!LING_GROUP: Wakashan
!!!REG: Pacific Northwest
**kern
*staff1
=1-
*clefF4
*k[f#c#g#d#a#]
*M3/4
4r
8r
16r
16A#\
8A#\L
16A#\L
16G#\JJ
=2
4..G#\
16A#\
8A#\L
16G#\L
16F#\JJ
=3
8D#\
16r
16G#\
12G#\L
12F#\
24A#\L
24G#\JJ
8G#\L
16G#\L
16F#\JJ
=4||
*M2/4
4D#\
8r
16r
16G#\
=5||
*M3/4
8G#\L
8D#\J
8BB/
16r
16D#\
16D#\LL
16C#\
16E\
16D#\JJ
=6||
*M2/4
8D#/L
8BB/J
8GG#/L
8BB/J
=7
8BB/L
8BB/J
8BB/L
8BB/J
=8
2BB/
==
*-
